X:1
T:Cook's Reel
M:C
L:1/8
Q:80
C:G. M. Bottoni 9/89
S:Reel
K:HP
[| {g}A/4e3/4B{g}de | \
{g}A/4e3/4B{g}d/2B/2{G}B/2e/2 | \
{g}A/4e3/4B{g}de |
{g}e/2d/2B/2e/2{g}A/2{d}A/2{e}A | \
{g}A/4e3/4B{g}de | \
{g}e{A}e{g}d/2B/2{G}B/2e/2 |
{g}A/4e3/4B{g}de | \
{g}e/2d/2B/2e/2{g}A/2{d}A/2{e}A|] [ | \
{g}A/4a3/4Bga |
A/4a3/4eg/2d/2{c}d/2e/2 | \
{g}A/4a3/4Bga | \
e/2d/2B/2e/2{g}A/2{d}A/2{e}A |
{g}A/4a3/4Bga | \
Aa/2e/2g/2d/2{c}d/2e/2 | \
{g}A/4a3/4Bga |
e/2d/2B/2e/2{g}A/2{d}A/2{e}A|]
{g}A/4a3/4Bga | \
Aa/2e/2g/2d/2{c}d/2e/2 |
{g}A/2a/2B/2a/2c/2a/2d/2a/2 | \
e/2d/2B/2e/2{g}A/2{d}A/2{e}A|]
